X: 37244
T: Sixpence, The
R: reel
M: 4/4
K: Fmajor
(Ac)|(dedc A2) (GA)|c2 (c2D2) (FG)|(A2 c).A (GBAG)|(F3 {AG}F2) (Ac)|
(dedc) (A2 {BA}G).A|.c2 (c2D2) (FG)|(A2 {BA^GA}c).A (=GB) {B}(AG)|(F4 {AG}F) z (FG)|
(A3c f2) {gf}(ef)|(gfef) .d2 (cB)|(Ac).d.e (f3e)|(d4 c) z (Ac)|
(d_edc) (A2 {BA}G).A|.c2 (cD) (FG)|(A2 {BA^GA}c).A (=GBA).G|F6||

